X:1
T:Country Courtship. WCD3/6.129
L:1/8
Q:3/8=120
M:6/8
I:linebreak $
K:F
V:1 treble 
V:1
 c/B/ | A>GF FGF | ABc cdc | BAG GAG | Bcd ded | AGF FGF | ABc cdc | cBA GcB |$ A2 G F2 :: e | %10
 f>gf a2 a | e3- e2 a | d>ed a2 d | ^c3- c2 A | =B^cd cde | def efg | fed Ad^c |$ d2 D D2 :| %18
